X: 6
T: John O'Shea's March
M: 4/4
L: 1/8
R: march
K: A Major
|: dcB | 
A2 c2 E2 FA | B>^ABc e2 cB | AFEF A2 A2 | A6 Bc |
d3 e f2 ed | c2 A2 B2 cd | e2 BA G/A/B FB | E2 E>F E2 Bc |
d3 e f2 ed | c2 A2 B2 cd | e2 BA G/A/B FB | E2 E>F EdcB |
A2 c2 E2 F/G/A | B>^ABc e2 cB | AFEF A2 A2 | A4- A :|
